images/texnomart.svg

<svg width="136" height="68" viewBox="0 0 136 68" fill="none" xmlns="http://www.w3.org/2000/svg">
<path d="M9.86946 42.5496V37.1593H8.51158V34.4017H9.86946V31.4951H13.0948V34.4017H15.7682V37.1593H13.0948V42.0195C13.0948 42.7623 13.4129 43.1229 14.1346 43.1229C14.6907 43.1254 15.2384 42.9868 15.7264 42.7199V45.3084C15.0465 45.7114 14.2618 45.9659 13.179 45.9659C11.2068 45.9659 9.86946 45.1805 9.86946 42.5496Z" fill="black"/>
<path d="M25.1892 39.1963C25.0021 37.7536 24.15 36.7775 22.7922 36.7775C21.4567 36.7775 20.5835 37.7324 20.334 39.1963H25.1892ZM17.1692 40.1089C17.1692 36.8623 19.482 34.189 22.7922 34.189C26.5901 34.189 28.3297 37.1386 28.3297 40.364C28.3297 40.6178 28.3085 40.9147 28.2873 41.2129H20.3727C20.6914 42.6768 21.71 43.4403 23.1514 43.4403C24.2336 43.4403 25.0183 43.1009 25.9096 42.2732L27.7565 43.9074C26.6961 45.2223 25.1674 46.0282 23.109 46.0282C19.6934 46.0282 17.1679 43.6305 17.1679 40.1082L17.1692 40.1089Z" fill="black"/>
<path d="M32.8462 40.0032L29.0052 34.4014H32.4639L34.5858 37.7115L36.729 34.4014H40.1022L36.2618 39.9395L40.2725 45.7746H36.8138L34.5222 42.2312L32.2306 45.7746H28.8568L32.8462 40.0032Z" fill="black"/>
<path d="M41.7325 34.4017H44.9578V36.014C45.7001 35.0585 46.655 34.189 48.2886 34.189C50.7293 34.189 52.1508 35.802 52.1508 38.4117V45.7718H48.9254V39.4302C48.9254 37.9021 48.2037 37.1174 46.9744 37.1174C45.745 37.1174 44.9584 37.9021 44.9584 39.4302V45.773H41.7325V34.4017Z" fill="black"/>
<path d="M63.2471 40.1089C63.2471 38.4329 62.0376 36.9683 60.2531 36.9683C58.4062 36.9683 57.3035 38.3905 57.3035 40.1089C57.3035 41.7849 58.5129 43.2494 60.2974 43.2494C62.1399 43.2494 63.2471 41.8273 63.2471 40.1089ZM54.123 40.1089C54.123 36.8411 56.7539 34.189 60.298 34.189C63.8203 34.189 66.43 36.7987 66.43 40.1089C66.43 43.376 63.7991 46.0288 60.255 46.0288C56.7321 46.0288 54.1211 43.4191 54.1211 40.1089H54.123Z" fill="black"/>
<path d="M68.4923 34.4017H71.7171V36.014C72.4599 35.0585 73.4361 34.189 75.0697 34.189C76.5554 34.189 77.68 34.8464 78.2738 35.9922C79.2718 34.8252 80.4569 34.189 82.0088 34.189C84.4064 34.189 85.8485 35.6317 85.8485 38.368V45.773H82.6238V39.4302C82.6238 37.9021 81.9439 37.1174 80.7351 37.1174C79.5263 37.1174 78.7846 37.9021 78.7846 39.4302V45.773H75.5581V39.4302C75.5581 37.9021 74.8782 37.1174 73.6687 37.1174C72.4593 37.1174 71.7183 37.9021 71.7183 39.4302V45.773H68.4923V34.4017Z" fill="black"/>
<path d="M95.1582 41.7644V41.1918C94.5098 40.9062 93.8083 40.7614 93.0998 40.767C91.7207 40.767 90.8718 41.3191 90.8718 42.38C90.8718 43.2533 91.5929 43.7591 92.6327 43.7591C94.1402 43.7591 95.1582 42.932 95.1582 41.7632V41.7644ZM87.7531 42.4642C87.7531 39.9818 89.6412 38.836 92.3345 38.836C93.2813 38.8275 94.2223 38.9854 95.1145 39.3025V39.1116C95.1145 37.775 94.2868 37.0327 92.6738 37.0327C91.4438 37.0327 90.5737 37.266 89.5339 37.6477L88.7305 35.1865C89.9824 34.6344 91.213 34.2739 93.1435 34.2739C94.9049 34.2739 96.178 34.7405 96.9839 35.547C97.8328 36.3959 98.2151 37.6477 98.2151 39.1759V45.7732H95.0964V44.5438C94.3111 45.417 93.2289 45.9871 91.659 45.9871C89.5158 45.9871 87.755 44.7559 87.755 42.4642H87.7531Z" fill="black"/>
<path d="M100.802 34.4022H104.028V36.6932C104.686 35.1226 105.747 34.1047 107.656 34.1895V37.5633H107.486C105.343 37.5633 104.028 38.8576 104.028 41.5733V45.7736H100.802V34.4022Z" fill="black"/>
<path d="M110.13 42.5496V37.1593H108.771V34.4017H110.13V31.4951H113.356V34.4017H116.029V37.1593H113.356V42.0195C113.356 42.7623 113.673 43.1229 114.395 43.1229C114.951 43.1255 115.499 42.9869 115.987 42.7199V45.3084C115.307 45.7114 114.522 45.9659 113.44 45.9659C111.467 45.9659 110.129 45.1812 110.129 42.5503L110.13 42.5496Z" fill="black"/>
<path d="M128.254 30.5133L126.936 28.2305L124.199 29.8104V26.6499H121.562V29.8104L118.825 28.2305L117.506 30.5133L120.244 32.0939L117.506 33.6744L118.825 35.958L121.562 34.3774V37.5379H124.199V34.3774L126.936 35.958L128.254 33.6744L125.517 32.0939L128.254 30.5133Z" fill="black"/>
<mask id="mask0_5_786" style="mask-type:luminance" maskUnits="userSpaceOnUse" x="0" y="23" width="136" height="30">
<path d="M136 23H0V52.0132H136V23Z" fill="white"/>
</mask>
<g mask="url(#mask0_5_786)">
<path d="M136 23H0V52.0132H136V23Z" fill="#FDC100"/>
<path d="M9.86946 42.5496V37.1593H8.51158V34.4017H9.86946V31.4951H13.0948V34.4017H15.7682V37.1593H13.0948V42.0195C13.0948 42.7623 13.4129 43.1229 14.1346 43.1229C14.6907 43.1254 15.2384 42.9868 15.7264 42.7199V45.3084C15.0465 45.7114 14.2618 45.9659 13.179 45.9659C11.2068 45.9659 9.86946 45.1805 9.86946 42.5496Z" fill="black"/>
<path d="M25.1892 39.1963C25.0021 37.7536 24.15 36.7775 22.7922 36.7775C21.4567 36.7775 20.5835 37.7324 20.334 39.1963H25.1892ZM17.1692 40.1089C17.1692 36.8623 19.482 34.189 22.7922 34.189C26.5901 34.189 28.3297 37.1386 28.3297 40.364C28.3297 40.6178 28.3085 40.9147 28.2873 41.2129H20.3727C20.6914 42.6768 21.71 43.4403 23.1514 43.4403C24.2336 43.4403 25.0183 43.1009 25.9096 42.2732L27.7565 43.9074C26.6961 45.2223 25.1674 46.0282 23.109 46.0282C19.6934 46.0282 17.1679 43.6305 17.1679 40.1082L17.1692 40.1089Z" fill="black"/>
<path d="M32.8462 40.0032L29.0052 34.4014H32.4639L34.5858 37.7115L36.729 34.4014H40.1022L36.2618 39.9395L40.2725 45.7746H36.8138L34.5222 42.2312L32.2306 45.7746H28.8568L32.8462 40.0032Z" fill="black"/>
<path d="M41.7325 34.4017H44.9578V36.014C45.7001 35.0585 46.655 34.189 48.2886 34.189C50.7293 34.189 52.1508 35.802 52.1508 38.4117V45.7718H48.9254V39.4302C48.9254 37.9021 48.2037 37.1174 46.9744 37.1174C45.745 37.1174 44.9584 37.9021 44.9584 39.4302V45.773H41.7325V34.4017Z" fill="black"/>
<path d="M63.2471 40.1089C63.2471 38.4329 62.0376 36.9683 60.2531 36.9683C58.4062 36.9683 57.3035 38.3905 57.3035 40.1089C57.3035 41.7849 58.5129 43.2494 60.2974 43.2494C62.1399 43.2494 63.2471 41.8273 63.2471 40.1089ZM54.123 40.1089C54.123 36.8411 56.7539 34.189 60.298 34.189C63.8203 34.189 66.43 36.7987 66.43 40.1089C66.43 43.376 63.7991 46.0288 60.255 46.0288C56.7321 46.0288 54.1211 43.4191 54.1211 40.1089H54.123Z" fill="black"/>
<path d="M68.4923 34.4017H71.7171V36.014C72.4599 35.0585 73.4361 34.189 75.0697 34.189C76.5554 34.189 77.68 34.8464 78.2738 35.9922C79.2718 34.8252 80.4569 34.189 82.0088 34.189C84.4064 34.189 85.8485 35.6317 85.8485 38.368V45.773H82.6238V39.4302C82.6238 37.9021 81.9439 37.1174 80.7351 37.1174C79.5263 37.1174 78.7846 37.9021 78.7846 39.4302V45.773H75.5581V39.4302C75.5581 37.9021 74.8782 37.1174 73.6687 37.1174C72.4593 37.1174 71.7183 37.9021 71.7183 39.4302V45.773H68.4923V34.4017Z" fill="black"/>
<path d="M95.1582 41.7644V41.1918C94.5098 40.9062 93.8083 40.7614 93.0998 40.767C91.7207 40.767 90.8718 41.3191 90.8718 42.38C90.8718 43.2533 91.5929 43.7591 92.6327 43.7591C94.1402 43.7591 95.1582 42.932 95.1582 41.7632V41.7644ZM87.7531 42.4642C87.7531 39.9818 89.6412 38.836 92.3345 38.836C93.2813 38.8275 94.2223 38.9854 95.1145 39.3025V39.1116C95.1145 37.775 94.2868 37.0327 92.6738 37.0327C91.4438 37.0327 90.5737 37.266 89.5339 37.6477L88.7305 35.1865C89.9824 34.6344 91.213 34.2739 93.1435 34.2739C94.9049 34.2739 96.178 34.7405 96.9839 35.547C97.8328 36.3959 98.2151 37.6477 98.2151 39.1759V45.7732H95.0964V44.5438C94.3111 45.417 93.2289 45.9871 91.659 45.9871C89.5158 45.9871 87.755 44.7559 87.755 42.4642H87.7531Z" fill="black"/>
<path d="M100.802 34.4022H104.028V36.6932C104.686 35.1226 105.747 34.1047 107.656 34.1895V37.5633H107.486C105.343 37.5633 104.028 38.8576 104.028 41.5733V45.7736H100.802V34.4022Z" fill="black"/>
<path d="M110.13 42.5496V37.1593H108.771V34.4017H110.13V31.4951H113.356V34.4017H116.029V37.1593H113.356V42.0195C113.356 42.7623 113.673 43.1229 114.395 43.1229C114.951 43.1255 115.499 42.9869 115.987 42.7199V45.3084C115.307 45.7114 114.522 45.9659 113.44 45.9659C111.467 45.9659 110.129 45.1812 110.129 42.5503L110.13 42.5496Z" fill="black"/>
<path d="M128.254 30.5133L126.936 28.2305L124.199 29.8104V26.6499H121.562V29.8104L118.825 28.2305L117.506 30.5133L120.244 32.0939L117.506 33.6744L118.825 35.958L121.562 34.3774V37.5379H124.199V34.3774L126.936 35.958L128.254 33.6744L125.517 32.0939L128.254 30.5133Z" fill="black"/>
</g>
</svg>

<svg xmlns="http://www.w3.org/2000/svg" width="136" height="68" fill="none"><path fill="#000" d="M9.87 42.55v-5.39H8.511v-2.758h1.357v-2.907h3.226v2.907h2.673v2.757h-2.673v4.86c0 .743.318 1.104 1.04 1.104a3.286 3.286 0 0 0 1.591-.403v2.588c-.68.403-1.464.658-2.547.658-1.972 0-3.31-.785-3.31-3.416ZM25.19 39.196c-.188-1.442-1.04-2.418-2.398-2.418-1.335 0-2.209.954-2.458 2.418h4.855Zm-8.02.913c0-3.247 2.312-5.92 5.622-5.92 3.798 0 5.538 2.95 5.538 6.175 0 .254-.021.55-.043.849h-7.914c.318 1.464 1.337 2.227 2.778 2.227 1.083 0 1.867-.34 2.759-1.167l1.846 1.634c-1.06 1.315-2.589 2.121-4.647 2.121-3.416 0-5.941-2.398-5.941-5.92h.001ZM32.846 40.003l-3.84-5.602h3.458l2.122 3.31 2.143-3.31h3.373l-3.84 5.538 4.01 5.836h-3.458l-2.292-3.544-2.291 3.544h-3.374l3.99-5.772ZM41.733 34.402h3.225v1.612c.742-.956 1.697-1.825 3.33-1.825 2.441 0 3.863 1.613 3.863 4.223v7.36h-3.226V39.43c0-1.528-.721-2.313-1.95-2.313-1.23 0-2.017.785-2.017 2.313v6.343h-3.225V34.402ZM63.247 40.109c0-1.676-1.21-3.14-2.994-3.14-1.847 0-2.95 1.422-2.95 3.14 0 1.676 1.21 3.14 2.994 3.14 1.843 0 2.95-1.422 2.95-3.14Zm-9.124 0c0-3.268 2.63-5.92 6.175-5.92 3.522 0 6.132 2.61 6.132 5.92 0 3.267-2.63 5.92-6.175 5.92-3.523 0-6.134-2.61-6.134-5.92h.002ZM68.492 34.402h3.225v1.612c.743-.956 1.72-1.825 3.353-1.825 1.485 0 2.61.657 3.204 1.803.998-1.167 2.183-1.803 3.735-1.803 2.397 0 3.84 1.443 3.84 4.179v7.405h-3.225V39.43c0-1.528-.68-2.313-1.889-2.313s-1.95.785-1.95 2.313v6.343h-3.227V39.43c0-1.528-.68-2.313-1.89-2.313-1.209 0-1.95.785-1.95 2.313v6.343h-3.226V34.402ZM95.158 41.764v-.572a5.008 5.008 0 0 0-2.058-.425c-1.38 0-2.228.552-2.228 1.613 0 .873.72 1.38 1.76 1.38 1.508 0 2.526-.828 2.526-1.997v.001Zm-7.405.7c0-2.482 1.888-3.628 4.582-3.628a8.085 8.085 0 0 1 2.78.467v-.191c0-1.337-.828-2.08-2.441-2.08-1.23 0-2.1.234-3.14.616l-.803-2.462c1.251-.552 2.482-.912 4.413-.912 1.76 0 3.034.466 3.84 1.273.849.849 1.231 2.1 1.231 3.629v6.597h-3.119v-1.23c-.785.874-1.867 1.444-3.437 1.444-2.143 0-3.904-1.231-3.904-3.523h-.002ZM100.802 34.402h3.226v2.291c.658-1.57 1.719-2.588 3.628-2.503v3.373h-.17c-2.143 0-3.458 1.295-3.458 4.01v4.2h-3.226v-11.37ZM110.13 42.55v-5.39h-1.359v-2.758h1.359v-2.907h3.226v2.907h2.673v2.757h-2.673v4.86c0 .743.317 1.104 1.039 1.104a3.285 3.285 0 0 0 1.592-.403v2.588c-.68.403-1.465.658-2.547.658-1.973 0-3.311-.785-3.311-3.416h.001ZM128.254 30.513l-1.318-2.283-2.737 1.58v-3.16h-2.637v3.16l-2.737-1.58-1.319 2.283 2.738 1.58-2.738 1.581 1.319 2.284 2.737-1.58v3.16h2.637v-3.16l2.737 1.58 1.318-2.284-2.737-1.58 2.737-1.58Z"/><mask id="a" width="136" height="30" x="0" y="23" maskUnits="userSpaceOnUse" style="mask-type:luminance"><path fill="#fff" d="M136 23H0v29.013h136V23Z"/></mask><g mask="url(#a)"><path fill="#FDC100" d="M136 23H0v29.013h136V23Z"/><path fill="#000" d="M9.87 42.55v-5.39H8.511v-2.758h1.357v-2.907h3.226v2.907h2.673v2.757h-2.673v4.86c0 .743.318 1.104 1.04 1.104a3.286 3.286 0 0 0 1.591-.403v2.588c-.68.403-1.464.658-2.547.658-1.972 0-3.31-.785-3.31-3.416ZM25.19 39.196c-.188-1.442-1.04-2.418-2.398-2.418-1.335 0-2.209.954-2.458 2.418h4.855Zm-8.02.913c0-3.247 2.312-5.92 5.622-5.92 3.798 0 5.538 2.95 5.538 6.175 0 .254-.021.55-.043.849h-7.914c.318 1.464 1.337 2.227 2.778 2.227 1.083 0 1.867-.34 2.759-1.167l1.846 1.634c-1.06 1.315-2.589 2.121-4.647 2.121-3.416 0-5.941-2.398-5.941-5.92h.001ZM32.846 40.003l-3.84-5.602h3.458l2.122 3.31 2.143-3.31h3.373l-3.84 5.538 4.01 5.836h-3.458l-2.292-3.544-2.291 3.544h-3.374l3.99-5.772ZM41.733 34.402h3.225v1.612c.742-.956 1.697-1.825 3.33-1.825 2.441 0 3.863 1.613 3.863 4.223v7.36h-3.226V39.43c0-1.528-.721-2.313-1.95-2.313-1.23 0-2.017.785-2.017 2.313v6.343h-3.225V34.402ZM63.247 40.109c0-1.676-1.21-3.14-2.994-3.14-1.847 0-2.95 1.422-2.95 3.14 0 1.676 1.21 3.14 2.994 3.14 1.843 0 2.95-1.422 2.95-3.14Zm-9.124 0c0-3.268 2.63-5.92 6.175-5.92 3.522 0 6.132 2.61 6.132 5.92 0 3.267-2.63 5.92-6.175 5.92-3.523 0-6.134-2.61-6.134-5.92h.002ZM68.492 34.402h3.225v1.612c.743-.956 1.72-1.825 3.353-1.825 1.485 0 2.61.657 3.204 1.803.998-1.167 2.183-1.803 3.735-1.803 2.397 0 3.84 1.443 3.84 4.179v7.405h-3.225V39.43c0-1.528-.68-2.313-1.889-2.313s-1.95.785-1.95 2.313v6.343h-3.227V39.43c0-1.528-.68-2.313-1.89-2.313-1.209 0-1.95.785-1.95 2.313v6.343h-3.226V34.402ZM95.158 41.764v-.572a5.008 5.008 0 0 0-2.058-.425c-1.38 0-2.228.552-2.228 1.613 0 .873.72 1.38 1.76 1.38 1.508 0 2.526-.828 2.526-1.997v.001Zm-7.405.7c0-2.482 1.888-3.628 4.582-3.628a8.085 8.085 0 0 1 2.78.467v-.191c0-1.337-.828-2.08-2.441-2.08-1.23 0-2.1.234-3.14.616l-.803-2.462c1.251-.552 2.482-.912 4.413-.912 1.76 0 3.034.466 3.84 1.273.849.849 1.231 2.1 1.231 3.629v6.597h-3.119v-1.23c-.785.874-1.867 1.444-3.437 1.444-2.143 0-3.904-1.231-3.904-3.523h-.002ZM100.802 34.402h3.226v2.291c.658-1.57 1.719-2.588 3.628-2.503v3.373h-.17c-2.143 0-3.458 1.295-3.458 4.01v4.2h-3.226v-11.37ZM110.13 42.55v-5.39h-1.359v-2.758h1.359v-2.907h3.226v2.907h2.673v2.757h-2.673v4.86c0 .743.317 1.104 1.039 1.104a3.285 3.285 0 0 0 1.592-.403v2.588c-.68.403-1.465.658-2.547.658-1.973 0-3.311-.785-3.311-3.416h.001ZM128.254 30.513l-1.318-2.283-2.737 1.58v-3.16h-2.637v3.16l-2.737-1.58-1.319 2.283 2.738 1.58-2.738 1.581 1.319 2.284 2.737-1.58v3.16h2.637v-3.16l2.737 1.58 1.318-2.284-2.737-1.58 2.737-1.58Z"/></g></svg>
